!!!!SEGMENT: pl-wtm--r-1607--004_stefani-jozef--requiem-sanctus.krn
!!!cenid: 18xx:2359
!!!COM: Stefani, Józef
!!!COM-rismid: pe30024097
!!!CDT: 1800/04/16-1876/03/19
!!!CNT: Polish
!!!OPR: Requiem
!!!OTL: Sanctus
!!!OMV: 004
!!!PDT:
!!!AGN: Sacred; Requiem
!!!SMS-siglum: PL-Wtm
!!!SMS-shelfmark: R 1607
!!!SMS-shelfwork: 001-004 M
!!!SMS-variant:
!!!SMS-altvar:
!!!NIFC-rismid: 1001115431
!!!URL-scan: http://repozytorium.nifc.pl/skany/pl-wtm-nut--r1607
!!!ONB-nifc: UWAGA: części Requiem: 1. Requiem aeternam, 2. Dies irae, 3. Offertorium, 4. Sanctus, 5. Benedicuts, 6. Agnus Dei, 7. Salve Regina
!!!OMD: Adagio
**kern	**kern	**kern	**text	**text	**dynam	**kern	**kern	**dynam
*part4	*part4	*part3	*part3	*part3	*part3	*part2	*part1	*part1
*staff5	*staff4	*staff3	*staff3	*staff3	*	*staff2	*staff1	*
*Iorgan	*Iorgan	*Iempty	*	*	*	*Itenor	*Itenor	*
*I"[Organo]	*I"[Organo]	*I"[Basſo]	*	*	*	*I"[Tenore IIo]	*I"[Tenore Imo]	*
*clefF4	*clefG2	*clefF4	*	*	*	*clefG2	*clefG2	*
*	*	*	*	*	*	*ITrd7c12	*ITrd7c12	*
*k[b-e-]	*k[b-e-]	*k[b-e-]	*	*	*	*k[b-e-]	*k[b-e-]	*
*B-:	*B-:	*B-:	*	*	*	*B-:	*B-:	*
*M4/4	*M4/4	*M4/4	*	*	*	*M4/4	*M4/4	*
*met(c)	*met(c)	*met(c)	*	*	*	*met(c)	*met(c)	*
=1	=1	=1	=1	=1	=1	=1	=1	=1
*all\right	*all\right	*all\right	*	*	*	*all\right	*all\right	*
!	!	!	!	!	!LO:DY:a:rj	!	!	!LO:DY:a:rj
1BBB- 1BB-	2F</ 2B- 2d	2BB-/	Sanc-	Świę-	p	(>4..F/ 4..B-	(>4..d\	p
.	.	.	.	.	.	16D/) 16F	16B-\)	.
*	*	*	*	*	*	*	*2\right	*
.	2D</ 2<F 2B-	2BB-/	-tus!	-ty!	.	2D/ 2F	2B-\	.
=2	=2	=2	=2	=2	=2	=2	=2	=2
*2\right	*	*	*	*	*	*	*	*
2.BBB-\ 2.BB-	2B-/ 2d 2f	2.BB-/	Sanc-	Świę-	.	(>4..B-\ 4..d	(>4..f\	.
.	.	.	.	.	.	16F/) 16B-	16d\)	.
.	(2F</ N[>2B- 2d	.	.	.	.	2F/ 2B-	2d\	.
4DD\ 4D	.	4D\	-tus!	-ty!	.	.	.	.
=3	=3	=3	=3	=3	=3	=3	=3	=3
*^	*	*	*	*	*	*^	*	*
!	!	!	!	!	!	!	!	!	!	!LO:HP:a
*	*	*	*2\right	*	*	*	*	*2\right	*	*
4B-/N]	1FF 1F	2.c/	2.F\	Sanc-	trzy-	.	4B-/	2.F\	2.c\	<
8A/L	.	.	.	.	.	.	8A/L	.	.	.
8G/J	.	.	.	.	.	.	8G/J	.	.	.
2A/	.	.	.	.	.	.	4A/	.	.	.
.	.	4f/	4F\	-tus	-kroć	.	4A/	4A\	4f\	[[
*	*	*	*	*	*	*	*v	*v	*	*
=4	=4	=4	=4	=4	=4	=4	=4	=4	=4
*	*	*	*	*	*	*	*	*^	*
!	!	!	!	!	!	!	!	!	!	!LO:HP:a
4.G/ 4.B-	4.GG\	2e-/	(>4.G\	Do-	świę-	.	(>4.B-\	2e-/	4.e-\	>
8F/ 8c	8AA\	.	8A\)	-mi-	.	.	8c\)	.	8e-\	.
2D/ 2B-	2BB-\	2d/	2B-\	-nus	-ty!	.	2B-\	2d/	2d\	]
*v	*v	*	*	*	*	*	*	*v	*v	*
!!LO:LB:g=original
=5	=5	=5	=5	=5	=5	=5	=5	=5
1FF 1F	2A</ 2c	2F\	De-	Bóg	.	2A/	2c\	.
.	2B-</ 2d	2F\	-us	za-	.	2B-/	2d\	.
=6	=6	=6	=6	=6	=6	=6	=6	=6
*	*	*^	*	*	*	*	*	*
1FF 1F	4.A</ 4.c	2F/	4.F\	Sa-	-stę-	.	(<4.A/	(>4.c\	.
.	8G#X</ 8Bn	.	8F\	-ba-	.	.	8G#X/)	8Bn\)	.
.	2A</ 2c	2F/	2F\	-oth,	-pów	.	2A/	2c\	.
*	*	*v	*v	*	*	*	*	*	*
=7	=7	=7	=7	=7	=7	=7	=7	=7
*	*^	*	*	*	*	*	*	*
2AA\	2F</ 2c 2e-	2ryy	(<2AA/	De-	nie-	.	2.F/	(>2e-\	.
4BB-\	4d/	2F</	4BB-/)	.	.	.	.	4d\)	.
4D\	4B-/	.	4D/	-us	-po-	.	4F/	4B-\	.
*	*v	*v	*	*	*	*	*	*	*
=8	=8	=8	=8	=8	=8	=8	=8	=8
*	*	*^	*	*	*	*	*	*
1FF 1F	4.A</ 4.c	2F/	4.F\	sa-	-ię-	.	(>4.A/	(>4.c\	.
.	8B-</ 8d	.	8F\	-ba-	.	.	8B-/)	8d\)	.
.	2A</ 2c	2F/	2F\	-oth	-ty	.	2A/	2c\	.
*	*	*v	*v	*	*	*	*	*	*
!!LO:PB:g=original
=9	=9	=9	=9	=9	=9	=9	=9	=9
2BB-\	2F</ 2B-< 2d	2BB-/	Ple-	Zie-	.	2F/	2d\	.
!	!	!	!	!	!	!	!	!LO:HP:a
2AA\	2D</ 2F#X< 2c	4.AA/	-ni	-mie	.	4.F#X/	4.c\	<
.	.	8AA/	sunt	i	.	8F#/	8c\	[[
=10	=10	=10	=10	=10	=10	=10	=10	=10
*^	*	*	*	*	*	*	*	*
!	!	!	!	!	!	!	!	!	!LO:HP:a
2.G/	2.GG\	4c/	2GG/	cae-	Nie-	.	2G/	(>4c\	>
.	.	2B-/	.	.	.	.	.	4B-\	.
.	.	.	4G\	-li	-bios	.	4G/	4B-\)	]
4ryy	4FF\	4F</ 4A< 4c	4F\	sunt	o-	.	4A/	4c\	.
*v	*v	*	*	*	*	*	*	*	*
=11	=11	=11	=11	=11	=11	=11	=11	=11
2.BB-\	2.F</ 2.B- 2.d	2BB-/	cae-	-krę-	.	2B-\	2d\	.
.	.	4BB-/	-li	-gi	.	4B-\	4d\	.
4D\	(>4B-/ 4f	(>4D\	et	Peł-	.	(>4B-\	(>[>4f\	.
=12	=12	=12	=12	=12	=12	=12	=12	=12
*^	*	*^	*	*	*	*	*	*
2C\	4G/	4f/	4C/)	2C\	ter-	-ne	.	4G/)	4f\]	.
.	4A/	4e-/	4C/	.	.	.	.	4A/	4e-\)	.
2BB-\	2ryy	2B-</) 2d	2BB-/	2BB-\	-ra	są	.	2B-\	2d\	.
*v	*v	*	*v	*v	*	*	*	*	*	*
=13	=13	=13	=13	=13	=13	=13	=13	=13
!	!	!	!	!	!LO:DY:a:rj	!	!	!LO:DY:a:rj
2.D\	2.d/	2.D\	glo-	Two-	f	2.d\	2.d\	f
8.BB-/L	8.B-/L	8.BB-/	-ri-	-iej	.	8.B-\	8.B-\	.
16D/Jk	16d/Jk	16D/	-a	po-	.	16d\	16d\	.
!!LO:LB:g=original
=14	=14	=14	=14	=14	=14	=14	=14	=14
*	*	*^	*	*	*	*^	*^	*
4F\	4f/	2F/	8.F\	glo-	-tę-	.	2f/	8.f\	8.f\	2f/	.
.	.	.	16F\	-ri-	.	.	.	16f\	16f\	.	.
4FF/ 4F	4f\ 4ff	.	4F\	-a	.	.	.	4f\	4f\	.	.
4CC/ 4C	4c/ 4cc	(4c/	4c\	tu-	.	.	4c/	4c\	4c\	4c/	.
4AA/	4A/ 4a	4A/)	4A\	.	.	.	4A/	4A\	4A/	4A\	.
=15	=15	=15	=15	=15	=15	=15	=15	=15	=15	=15	=15
4FF/ 4F	4f/	4F/	4F\	-a	-gi	.	4F/	4F\	4F/	4F\	.
(>4c\ 4e-	(>4cc\ 4ee-	4r	4rB	.	.	.	4rff	4r	4r	4rff	.
4B-\ 4d	4b-\ 4dd	4r	2rB	.	.	.	2rff	4r	4r	2rff	.
4F\) 4c	4f/) 4cc	4F\	.	O-	.	.	.	4F\	4F/	.	.
*	*	*v	*v	*	*	*	*	*	*v	*v	*
*	*	*	*	*	*	*v	*v	*	*
=16||	=16||	=16||	=16||	=16||	=16||	=16||	=16||	=16||
*M6/8	*M6/8	*M6/8	*	*	*	*M6/8	*M6/8	*
*	*	*^	*	*	*	*^	*^	*
!	!	!	!	!	!	!	!	!	!LO:TX:a:i:t=Allegro moderato	!	!
[>4.BB-\ [>4.F	4d/ 4f 4b-	4BB-/	4BB-\	-san-	Chwa-	.	4D/	4.ryy	4B-/	4B-\	.
.	8d/ 8f	8BB-/	8BB-\	-na	-ła	.	8D/	.	8F/	8F\	.
4BB-\] 4F]	8B-/L 8d	8BB-/	4BB-\	in	na	.	8D/	4D\	8D/	8D\L	.
.	8d/ 8f	8BB-/	.	.	wy-	.	8D/	.	8F/	8F\J	.
8D\ 8F 8B-	8f/J 8b-	8D/	8D\	ex-	-so-	.	8F/	8F\	8B-/	8B-\	.
!!LO:PB:g=original
=17	=17	=17	=17	=17	=17	=17	=17	=17	=17	=17	=17
4.F\ 4.B- 4.d	4.f/ 4.b- 4.dd	4.F\	4.ryy	-cael-	-ko-	.	4.B-\	4.ryy	4.d/	4.d\	.
4.D\ 4.F 4.B-	4.d/ 4.f 4.b-	4D\	4.D/	-sis	-ści	.	4F\	4.F/	4.B-/	4B-\	.
.	.	8D\	.	O-	.	.	8F\	.	.	8B-\	.
=18	=18	=18	=18	=18	=18	=18	=18	=18	=18	=18	=18
4.BB-\ 4.F 4.B-	4f/ 4b- 4dd	4BB-/	4.ryy	-san-	Chwa-	.	4F/	4.ryy	4d\	4.ryy	.
.	8d/ 8f 8b-	8BB-/	.	-na	-ła	.	8D/	.	8B-\	.	.
8BB-\L 8F 8B-	8d/L 8f	8BB-/	8BB-\L	in	na	.	8D/	8D\L	8F/	8F\L	.
8D\ 8F 8B-	8f/ 8b-	8D/	8D\J	.	wy	.	8F/	8F\J	8B-/	8B-\J	.
8F\J 8B- 8d	8f/J 8b- 8dd	8F/	8F\	ex-	so-	.	8B-/	8B-\	8d/	8d\	.
=19	=19	=19	=19	=19	=19	=19	=19	=19	=19	=19	=19
*^	*	*	*	*	*	*	*	*	*	*	*
4.B-\ 4.d	2ryy	4.f\ 4.b- 4.dd 4.ff	4.B-/	4.B-\	-cael-	-ko-	.	4.d\	4.ryy	4.f\	4.ryy	.
8BB-\ 8B-	.	8d/ 8f 8b- 8dd	8BB-/	8BB-\	-sis	-ści	.	8B-/	8B-\	8d/	8d\	.
!	!	!	!	!	!	!	!LO:DY:a:rj	!	!	!	!	!LO:DY:a:rj
8B-/L	4BBB-\ 4BB-	4d/	8BB-/	4BB-\	O-	Nie-	p	8B-/	8B-\L	8d/	4d:\	p
8A/J	.	.	8BB-/	.	.	-chaj	.	8A/	8A\J	8d/	.	.
*	*	*	*v	*v	*	*	*	*	*	*v	*v	*
*v	*v	*	*	*	*	*	*v	*v	*	*
=20	=20	=20	=20	=20	=20	=20	=20	=20
2.BBB-\ 2.BB-	4G</ 4e-	4BB-/	-san-	te-	.	4G/	4e-\	.
.	8F#X</ 8d	8BB-/	-na	-mu	.	8F#X/	8d\	.
.	4G</ 4e-	4BB-/	in	bę-	.	4G/	4e-\	.
.	8E-</ 8c	8BB-/	ex-	-dzie	.	8E-/	8c\	.
!!LO:LB:g=original
=21	=21	=21	=21	=21	=21	=21	=21	=21
4.BBB-\ 4.BB-	4.F</ 4.B-< 4.d	4.BB-/	-cael-	da-	.	4.F/	4.d\	.
8BBB-\ 8BB-	8D</ 8F< 8B-<	8BB-/	-sis	-na	.	8D/	8B-\	.
8BB-\L 8F 8B-	8d/L 8f 8b-	8BB-/	in	Któ-	.	8D/	8B-\	.
8BB-\J 8F 8B-	8f/J 8b- 8dd	8BB-/	ex-	-ry	.	8B-\	8d\	.
=22	=22	=22	=22	=22	=22	=22	=22	=22
*	*	*^	*	*	*	*	*	*
4F\ 4A 4c	4f/ 4a 4cc	4F\	4.ryy	-cael-	przy-	.	4A\	4c\	.
8F\ 8B- 8d	8f/ 8b- 8dd	8F\	.	-sis	-szedł	.	8B-\	8d\	.
.	.	.	.	.	.	.	8qd/	(<8qf/	.
4F\ 4c 4e-	4f/ 4cc 4ee-	4F/	4.F\	De-	w_I-	.	4c\	4e-\)	.
8F\ 8B- 8d	8f/ 8b- 8dd	8F/	.	.	-mie	.	8B-\	8d\	.
=23	=23	=23	=23	=23	=23	=23	=23	=23	=23
*	*	*	*	*	*	*	*^	*^	*
4.F\ 4.A 4.c	[<4.f/ [>4.a [>4.cc	4.F/	4.F\	-o	Pa-	.	4.A/	2ryy	4.c\	2ryy	.
4F\ 4A 4c	4f/] 4a] 4cc]	4F/	4F\	.	-na	.	4A/	.	4c\	.	.
.	.	.	.	.	.	.	.	8ryy	.	8ryy	.
8FF/ 8F	8f/	8F\	8rB	O-	.	.	8F\	8rdd	8F\	8rdd	.
*	*	*	*	*	*	*	*v	*v	*	*	*
=24	=24	=24	=24	=24	=24	=24	=24	=24	=24	=24
4.BB-\ 4.F	4d/ 4b-	4BB-/	4BB-\	-san-	Chwa-	.	4D/	4B-\	4.ryy	.
.	8d/ 8f	8BB-/	8BB-\	-na	-ła	.	8D/	8F/	.	.
8BB-\L 8F	8B-/L 8d	8BB-/	4BB-\	in	na	.	8D/	8D/	8D\L	.
8BB-\ 8F 8B-	8d/ 8f	8BB-/	.	.	wy-	.	8D/ 8F	8F/	8F\J	.
8BB-\J 8F 8B-	8f/J 8b-	8D/	8D\	ex-	-so-	.	8F/	8B-/	8B-\	.
*	*	*v	*v	*	*	*	*	*	*	*
!!LO:PB:g=original
=25	=25	=25	=25	=25	=25	=25	=25	=25	=25
*	*	*	*	*	*	*^	*	*	*
4.F\ 4.B- 4.d	4.f/ 4.b- 4.dd	4.F\	-cael-	-ko-	.	4.B-/	4.B-\	4.d/	4.d\	.
4D\ 4F 4B-	4f/ 4b-	4D\	-sis	-ści	.	4.F/	4F\	4.B-/	4B-\	.
8D\ 8F 8B-	8f/ 8b-	8D\	O-	.	.	.	8F\	.	8B-\	.
=26	=26	=26	=26	=26	=26	=26	=26	=26	=26	=26
*	*	*^	*	*	*	*	*	*	*	*
4.BB-\ 4.F 4.B-	4f/ 4b- 4dd	4BB-/	4.FF\	-san-	Chwa-	.	4F/	4.ryy	4d\	4.ryy	.
.	8d/ 8f 8b-	8BB-/	.	-na	-ła	.	8D/	.	8B-\	.	.
8BB-\L 8F 8B-	8d/L 8f	8BB-/	8BB-\L	in	na	.	8D/	8D\L	8F/	8F\L	.
8D\ 8F 8B-	8f/ 8b-	8D/	8D\J	.	wy-	.	8F/	8F\J	8B-/	8B-\J	.
8D\J 8B- 8d	8b-/J 8dd	8F/	8F\	ex-	-so-	.	8B-/	8B-\	8d/	8d\	.
*	*	*v	*v	*	*	*	*	*	*	*	*
*	*	*	*	*	*	*v	*v	*	*	*
=27	=27	=27	=27	=27	=27	=27	=27	=27	=27
4.B-\ 4.d	4.f/ 4.b- 4.dd 4.ff	4.B-\	-cael-	-ko-	.	4.d\	4.f/	4.f\	.
4.BB-\ 4.B-	4.f/ 4.b- 4.dd	4.BB-/	-sis	-ści	.	4.B-\	4.d/	4.d\	.
*	*	*	*	*	*	*	*v	*v	*
=28||	=28||	=28||	=28||	=28||	=28||	=28||	=28||	=28||
*k[b-e-]	*k[b-e-]	*k[b-e-]	*	*	*	*k[b-e-]	*k[b-e-]	*
*M4/4	*M4/4	*M4/4	*	*	*	*M4/4	*M4/4	*
*met(c)	*met(c)	*met(c)	*	*	*	*met(c)	*met(c)	*
*	*2\right	*	*	*	*	*	*	*
!	!	!	!	!	!	!	!LO:TX:a:i:t=Adagio.	!LO:DY:a:rj
1E- 1G 1B-	2g\ 2b- 2ee- 2gg	2E-\	Sanc-	Swię-	.	(>4..B-\	(>4..g\	ff
.	.	.	.	.	.	16G/)	16e-\)	.
.	2g/ 2b- 2ee-	2E-\	-tus!	-ty!	.	2G/	2e-\	.
!!LO:LB:g=original
=29	=29	=29	=29	=29	=29	=29	=29	=29
[<2F\ [>2A [>2c	[<2f/ [>2a [>2cc	2F\	Sanc-	Swię-	.	2A/	2c\	.
8F\] 8A] 8c]	8f/] 8a] 8cc]	8F\	-tus!	-ty!	.	8A/	8c\	.
8r	8r	8r	.	.	.	8r	8r	.
!	!	!	!	!	!LO:DY:a:rj	!	!	!LO:DY:a:rj
4FF/ 4F	4f\ 4a 4ff	8.F\	Sanc-	trzy-	ff	8.A/	8.f\	ff
.	.	16F\	-tus	-kroć	.	16A/	16f\	.
=30	=30	=30	=30	=30	=30	=30	=30	=30
4BB-\ 4B-	[<1d [<1f [>1b- [>1dd	1BB-	Sanc-	swię-	.	1B-	1d	.
4BB-\ 4B-	.	.	.	.	.	.	.	.
4FF/ 4F	.	.	.	.	.	.	.	.
4DD/ 4D	.	.	.	.	.	.	.	.
=31	=31	=31	=31	=31	=31	=31	=31	=31
[<1BBB- [>1BB-	1d_< 1f_< 1b-_> 1dd_>	4BB-/	-tus!	-ty!	.	4B-\	4d\	.
.	.	4r	.	.	.	4r	4r	.
.	.	2r	.	.	.	2r	2r	.
=32	=32	=32	=32	=32	=32	=32	=32	=32
1BBB-;>] 1BB-]	1d;>] 1f] 1b-] 1dd]	1r;>	.	.	.	1r;>	1r;>	.
!!LO:PB:g=original
==	==	==	==	==	==	==	==	==
*-	*-	*-	*-	*-	*-	*-	*-	*-
!!!system-decoration: {(s1,s2,s3)}{(s4,s5)}
!!!RDF**kern: < = below
!!!RDF**kern: > = above
!!!RDF**kern: N = linked
!!!ENC: Marta Chmielewska
!!!END: 2021-06-09
!!!ENC: Tomasz Grochalski
!!!END: 2021-06-05
